Adwaita++/status/24/livewallpaper-indicator.svg

<svg height="24" width="24" xmlns="http://www.w3.org/2000/svg">
  <path d="m12 1c1.662 0 3 1.338 3 3v6c0 1.662-1.338 3-3 3h-8c-1.662 0-3-1.338-3-3v-6c0-1.662 1.338-3 3-3zm0 2h-8c-.554 0-1 .446-1 1v6c0 .554.446 1 1 1h8c.554 0 1-.446 1-1v-6c0-.554-.446-1-1-1zm-4 11c-5 0-5 1-5 1 0 1 1 1 1 1h8c1 0 1-1 1-1s0-1-5-1z" fill="#fff" transform="matrix(1.4666667 0 0 1.4666667 .033333 -.466667)"/>
</svg>

<?xml version="1.0" encoding="UTF-8" standalone="no"?>
<svg
   xmlns:dc="http://purl.org/dc/elements/1.1/"
   xmlns:cc="http://creativecommons.org/ns#"
   xmlns:rdf="http://www.w3.org/1999/02/22-rdf-syntax-ns#"
   xmlns:svg="http://www.w3.org/2000/svg"
   xmlns="http://www.w3.org/2000/svg"
   xmlns:sodipodi="http://sodipodi.sourceforge.net/DTD/sodipodi-0.dtd"
   xmlns:inkscape="http://www.inkscape.org/namespaces/inkscape"
   width="24"
   height="24"
   version="1.1"
   id="svg10"
   sodipodi:docname="livewallpaper-indicator.svg"
   inkscape:version="0.92.4 (5da689c313, 2019-01-14)">
  <metadata
     id="metadata16">
    <rdf:RDF>
      <cc:Work
         rdf:about="">
        <dc:format>image/svg+xml</dc:format>
        <dc:type
           rdf:resource="http://purl.org/dc/dcmitype/StillImage" />
        <dc:title></dc:title>
      </cc:Work>
    </rdf:RDF>
  </metadata>
  <defs
     id="defs14" />
  <sodipodi:namedview
     pagecolor="#ffffff"
     bordercolor="#666666"
     borderopacity="1"
     objecttolerance="10"
     gridtolerance="10"
     guidetolerance="10"
     inkscape:pageopacity="0"
     inkscape:pageshadow="2"
     inkscape:window-width="1920"
     inkscape:window-height="1016"
     id="namedview12"
     showgrid="false"
     inkscape:zoom="9.8333333"
     inkscape:cx="12"
     inkscape:cy="12"
     inkscape:window-x="0"
     inkscape:window-y="27"
     inkscape:window-maximized="1"
     inkscape:current-layer="svg10" />
  <g
     id="g825"
     style="fill:#ffffff;fill-opacity:1"
     transform="matrix(1.4666667,0,0,1.4666667,0.0333333,-0.4666672)">
    <path
       id="path823"
       d="m 12,1 c 1.662,0 3,1.338 3,3 v 6 c 0,1.662 -1.338,3 -3,3 H 4 C 2.338,13 1,11.662 1,10 V 4 C 1,2.338 2.338,1 4,1 Z m 0,2 H 4 C 3.446,3 3,3.446 3,4 v 6 c 0,0.554 0.446,1 1,1 h 8 c 0.554,0 1,-0.446 1,-1 V 4 C 13,3.446 12.554,3 12,3 Z M 8,14 c -5,0 -5,1 -5,1 0,1 1,1 1,1 h 8 c 1,0 1,-1 1,-1 0,0 0,-1 -5,-1 z"
       inkscape:connector-curvature="0"
       style="fill:#ffffff;fill-opacity:1" />
  </g>
</svg>
